images/cast_nfts.svg

<svg width="32" height="32" viewBox="0 0 32 32" fill="none" xmlns="http://www.w3.org/2000/svg">
<path d="M15.5001 3.71641C15.8095 3.53778 16.1907 3.53778 16.5001 3.71641L26.3873 9.42477C26.6967 9.60341 26.8873 9.93353 26.8873 10.2908V21.7075C26.8873 22.0648 26.6967 22.3949 26.3873 22.5736L16.5001 28.2819C16.1907 28.4605 15.8095 28.4605 15.5001 28.2819L5.61296 22.5736C5.30356 22.3949 5.11296 22.0648 5.11296 21.7075V10.2908C5.11296 9.93353 5.30356 9.60341 5.61296 9.42477L15.5001 3.71641Z" stroke="#445B74" stroke-width="2"/>
<path d="M8 21.1423L8 11.428L11.4286 22.2852C11.4286 17.822 11.4286 14.1769 11.4286 9.71373" stroke="#1AC486" stroke-width="1.37931" stroke-linecap="round" stroke-linejoin="round"/>
<path d="M22.5554 10.3823C22.5554 14.3992 22.5603 17.1258 22.5603 21.1426L22.5554 10.3823ZM22.5554 10.3823L24.5718 11.6569L20.5718 9.14258" stroke="#1AC486" stroke-width="1.37931" stroke-linecap="round" stroke-linejoin="round"/>
<path d="M14.6284 24L14.6284 15.8797M18.6886 8.21052L16.0001 6.85714L14.6284 7.7594L14.6284 15.8797M14.6284 15.8797L18.8572 15.8797" stroke="#1AC486" stroke-width="1.57895" stroke-linecap="round" stroke-linejoin="round"/>
</svg>

<svg xmlns="http://www.w3.org/2000/svg" width="23.774" height="26.875" viewBox="0 0 23.774 26.875">
  <g id="cast_nfts" transform="translate(-4.113 -2.562)">
    <path id="Path_2237" data-name="Path 2237" d="M15.5,3.716a1,1,0,0,1,1,0l9.887,5.708a1,1,0,0,1,.5.866V21.708a1,1,0,0,1-.5.866L16.5,28.282a1,1,0,0,1-1,0L5.613,22.574a1,1,0,0,1-.5-.866V10.291a1,1,0,0,1,.5-.866Z" fill="none" stroke="#445b74" stroke-width="2"/>
    <path id="Path_2238" data-name="Path 2238" d="M8,21.142V11.428l3.429,10.857V9.714" fill="rgba(255,0,0,0)" stroke="#cd58c1" stroke-linecap="round" stroke-linejoin="round" stroke-width="1.379"/>
    <path id="Path_2239" data-name="Path 2239" d="M22.555,10.382c0,4.017,0,6.743,0,10.76Zm0,0,2.016,1.275-4-2.514" fill="rgba(255,0,0,0)" stroke="#cd58c1" stroke-linecap="round" stroke-linejoin="round" stroke-width="1.379"/>
    <path id="Path_2240" data-name="Path 2240" d="M14.628,24V15.88m4.06-7.669L16,6.857l-1.372.9v8.12m0,0h4.229" fill="rgba(255,0,0,0)" stroke="#cd58c1" stroke-linecap="round" stroke-linejoin="round" stroke-width="1.579"/>
  </g>
</svg>
